X:1156
T: Nem idevaló születésű vagyok én
Q:1/4=112
M:4/4
L:1/4
K:F
d G d/d/ c | d/d/c/B/ | A<G G z |
d d g g | f/e/d/f/ | e<d d z |
d d g g | f/e/d/f/ | e/e/d/d/ c z |
d G d/d/c | d/d/c/B/ | A<G G z |



